!!!OTL: 168. Der Mann im Heu.
!!!ARE: Europa, Mitteleuropa, Deutschland, Westerwald; Dillkreis; Wetzlar
!!!SCT: B0168
!!!TXL: @@DE
!!!YEM: Copyright 1995, estate of Helmut Schaffrath.
**kern	**text
*ICvox	*
*Ivox	*
*M6/8	*
*clefG2	*
*k[b-]	*
*F:	*
!LO:TX:a:t=Lebhaft.	!
{8f	Ein
=1	=1
8f	nied-
8f	-li-
8f	-ches
8f	Mädchen,
8g	.
8a	ein
=2	=2
4b-	jun-
8b-	-ges
4b-}	Blut,
{8b-	er-
=3	=3
8cc	-kor
8cc	ſich
8cc	ein
8f	Landmann
8g	.
8a	ʒur
=4	=4
4.b-	Frau.
4r}	.
{8b-	Doch
=5	=5
8b-L	war
8gJ	.
8g	ſie
8g	ei-
8g	-nem
8g	Sol-
=6	=6
8fL	-da-
8aJ	.
8cc	-ten
4ff}	gut
{8a	und
=7	=7
8cc	bat
8cc	ih-
8cc	-ren
8cc	Al-
8b-	-ten
8g	einſt
=8	=8
4.f	ſchlau,
4r}	.
{8f	er
=9	=9
8f	ſoll-
8f	-te
8f	doch
8f	fah-
8g	-ren
8a	ins
=10	=10
4.b-	Heu,
4r}	.
{8b-	er
=11	=11
8cc	ſoll-
8cc	-te
8cc	doch
8cc	fah-
8b-	-ren
8cc	ins
=12	=12
4.dd	Heu.
4r}	.
{8b-	Juch-
=13	=13
8b-	-hei-
8g	der-
8g	-lan-
4g	-dam,
8g	juch-
=14	=14
8f	-hei-
8a	-der-
8cc	-lan-
4ff}	-dam,
{8a	er
=15	=15
8cc	ſoll-
8cc	-te
8cc	doch
8cc	fah-
8b-	-ren
8g	ins
=16	=16
4.f	Heu.
4r}	.
==	==
!!!AGN: Ballade, Romanze
!!!GTL: Balladen und Romanzen
!!!ONB: ESAC (Essen Associative Code) Database: BOEHME
!!!AMT: compound duple
!!!AIN: vox
!!!EED: Helmut Schaffrath
!!!EEV: 1.0
!!Aus dem Weſterwald, Dillkreis und Kreis Wetʒlar.
!!@@COMMENT:"Gedicht von A. Langbein. - Ʒuerſt in Beckers Taſchenbuch f. 1808", S. 62. Es iſt die
!!Umdichtung eines ſehr alten Volksliedes, ſ. Liederh. J. S. 488. [...]
!!Die Mel. hier iſt jüngere Volksweiſe; die ältere in Härtels Liederlexikon."
!!@@END:
!!!Text: A. Langbein
!!!URL-scan: https://archive.org/details/BoehmeVtLieder1895/page/n165/mode/2up
!!!ENC: Anna Maria Matuszewska
!!!EEV: 2024/19/06
*-	*-
